!!!OTL: Auld Lang Syne
!!!ARE: Scotland
!!!AMD: Pentatonic
**kern
*clefG2
*k[b-]
*M2/4
*MM84
{8c/
=1
8.f/L
16f/Jk
8f/L
8a/J
=2
8.g/L
16f/Jk
8g/L}
{8a/J
=3
8.f/L
16f/Jk
8a/L
8cc/J
=4
4dd\}
8r
{8dd\
=5
8.cc/L
16a/Jk
8a/L
8f/J
=6
8.g/L
16f/Jk
8g/L}
{8a/J
=7
8.f/L
16d/Jk
8d/L
8c/J
=8
4f/}
8r
{8dd\
=9
(8.cc/L
16a/Jk)
(8a/L
8f/J)
=10
8.g/L
16f/Jk
8g/L}
{8dd/J
=11
(8.cc/L
16a/Jk)
8a/L
8cc/J
=12
4dd\}
8r
{8ff\
=13
8.cc/L
16a/Jk
8a/L
8f/J
=14
8.g/L
16f/Jk
8g/L
16.a/L
32g/JJk
=15
8.f/L
16d/Jk
8d/L
8c/J
=16
4f/}
8r
==
*-
